X:114
T:Sheehan's Discovery
B:Terry "Cuz" Teahan "Sliabh Luachra on Parade" 1980
Z:Patrick Cavanagh
M:2/4
L:1/8
R:Polka
K:G
E | A>B cd | ed ea | ge de/d/ | cA GE | 
A>B cd | ed ea | ge de/d/ | cA A :| 
g | a2 ge | dB gf/g/ | aA AB/^c/ | dB GE | 
A>B cd | e/f/e/d/ ea | ge de/d/ | cA A :|| 

